!!!COM: Bach, Johann Sebastian
!!!OTL@@DE: 281. Wo soll ich fliehen hin
!!!OTL@EN: Whither am I to flee?
!!!SCA: BWV 89.6
**harm	**root	**kern	**kern	**kern	**kern
*staff2	*	*staff2	*staff2	*staff1	*staff1
*Iorgan	*Iorgan	*Iorgan	*Iorgan	*Iorgan	*Iorgan
!	!	!bass	!tenor	!alto	!sprno
*	*	*clefF4	*clefF4	*clefG2	*clefG2
*k[f#c#]	*k[f#c#]	*k[f#c#]	*k[f#c#]	*k[f#c#]	*k[f#c#]
*b:	*b:	*b:	*b:	*b:	*b:
*met(c)	*met(c)	*met(c)	*met(c)	*met(c)	*met(c)
*M4/4	*M4/4	*M4/4	*M4/4	*M4/4	*M4/4
*MM60	*MM60	*MM60	*MM60	*MM60	*MM60
i	4GG	4BB	4d	4f#	4b
=1	=1	=1	=1	=1	=1
i	4GG	4B	4d	4f#	4b
V	4DD	4A#	4c#	4f#	4cc#
i	4GG	4B	8BL	4f#	4dd
.	.	.	8dJ	.	.
ivb	4CC	4G	4g	4b	4ee
=2	=2	=2	=2	=2	=2
V;	2.DD;	2.F#;	2.c#;	2.a#;	2.ff#;
V7c	4DD	4E	4c#	4a#	4ff#
=3	=3	=3	=3	=3	=3
ib	4GG	4D	4d	4b	4ff#
viiob	4FF#	4C#	4e	8bL	4ee
.	.	.	.	8a#J	.
i	4GG	4BB	4f#	4b	4dd
iiob	4AA	4E	4g	4cc#	4ee
=4	=4	=4	=4	=4	=4
V;	2.DD;	2.F#;	2.f#;	2.a;	2.cc##;
*D:	*D:	*D:	*D:	*D:	*D:
V/VI	4DD	4F#	4f#	4a	4cc##
=5	=5	=5	=5	=5	=5
vi	4GG	4B	4f#	4b	4dd
V	4FF	4A	4a	4cc#	4ee
I	4BB-	8dL	4a	4dd	4ff#
.	.	8c#	.	.	.
vi	4GG	8B	4b	4dd	4ff#
.	.	8AJ	.	.	.
=6	=6	=6	=6	=6	=6
iv7b	4EE-	4G	4b	4dd	2ee
V	4FF	4A	4a	4cc#	.
I;	4BB-;	4D;	4a;	4dd;	4ff#;
Vb/VI	4DD	4A#	4f#	4cc#	4ff#
=7	=7	=7	=7	=7	=7
!!linebreak: 2
vi	4GG	(4B	4f#	4b	4dd
V	4FF	8AL	4a	8cc#L	4ee
.	.	8GJ)	.	8bJ	.
Ib	4BB-	8F#L	4d	4a	4ff#
.	.	8E	.	.	.
I	4BB-	8D	4d	4a	4ff#
.	.	8F#J	.	.	.
=8	=8	=8	=8	=8	=8
ii7	4CC	8GL	4d	4b	2ee
.	.	8EJ	.	.	.
V	4FF	4A	4c#	4a	.
I;	4BB-;	4D;	4f#;	4a;	4dd;
I	4BB-	4d	4a	4dd	4ff#
=9	=9	=9	=9	=9	=9
Vb	4FF	4c#	4a	4ee	4aa
I	4BB-	4d	8aL	4dd	4ff#
.	.	.	8bJ	.	.
Vb/VI	4DD	4A#	8cc#L	4cc#	4ff#
.	.	.	8c#J	.	.
vi	4GG	4B	4d	4b	4ff#
=10	=10	=10	=10	=10	=10
V7b/V	4CC	4G#	4d	4b	2ee
Vc	8FF	4E	8c#L	8aL	.
V/V	8CC	.	8BJ	8g#J	.
V;	4FF;	4A;	4c#;	4a;	4ee;
*b:	*b:	*b:	*b:	*b:	*b:
ivb	4CC	4G	4B	4b	4ee
=11	=11	=11	=11	=11	=11
V	4DD	8F#L	4c#	4a#	4ff#
.	.	8EJ	.	.	.
V7c	4DD	8DL	4f#	4a#	4ee
.	.	8C#J	.	.	.
i	4GG	8BBL	4f#	4b	4dd
.	.	8AJ	.	.	.
ivb	8CC	8GL	8eL	4b	8eeL
ic	8GG	8F#J	8f#J	.	8ddJ
=12	=12	=12	=12	=12	=12
iio7	4AA	4E	4g	4b	2cc#
V7	4DD	4F#	8f#L	4a#	.
.	.	.	8eJ	.	.
I;	4GG;	4BB;	4d#;	4f#;	4b;
==	==	==	==	==	==
*-	*-	*-	*-	*-	*-
!!!ENC: Craig Stuart Sapp
!!!END: 2004/12/06/
!!chor2scor: -l 2 -s 0.6 -o %b.pmx
